tests/fixtures/test_lut_1d.cal
CAL

DESCRIPTOR "Identity 1D Cal"
ORIGINATOR "test"
NUMBER_OF_FIELDS 4
BEGIN_DATA_FORMAT
TV_R TV_G TV_B TV_in
END_DATA_FORMAT
NUMBER_OF_SETS 3
BEGIN_DATA
0.000000 0.000000 0.000000 0.000000
0.500000 0.500000 0.500000 0.500000
1.000000 1.000000 1.000000 1.000000
END_DATA
